images/icon/icon-event.svg

<?xml version="1.0" standalone="no"?><!DOCTYPE svg PUBLIC "-//W3C//DTD SVG 1.1//EN" "http://www.w3.org/Graphics/SVG/1.1/DTD/svg11.dtd"><svg t="1669713905595" class="icon" viewBox="0 0 1024 1024" version="1.1" xmlns="http://www.w3.org/2000/svg" p-id="6774" xmlns:xlink="http://www.w3.org/1999/xlink" width="200" height="200"><path d="M896 938.666667H128c-23.466667 0-42.666667-19.2-42.666667-42.666667V213.333333c0-23.466667 19.2-42.666667 42.666667-42.666666h768c23.466667 0 42.666667 19.2 42.666667 42.666666v682.666667c0 23.466667-19.2 42.666667-42.666667 42.666667z" fill="#BAE7FF" p-id="6775"></path><path d="M938.666667 341.333333H85.333333v-128c0-23.466667 19.2-42.666667 42.666667-42.666666h768c23.466667 0 42.666667 19.2 42.666667 42.666666v128z" fill="#185ABD" p-id="6776"></path><path d="M266.666667 256c-23.466667 0-42.666667-19.2-42.666667-42.666667V128c0-23.466667 19.2-42.666667 42.666667-42.666667s42.666667 19.2 42.666666 42.666667v85.333333c0 23.466667-19.2 42.666667-42.666666 42.666667zM746.666667 256c-23.466667 0-42.666667-19.2-42.666667-42.666667V128c0-23.466667 19.2-42.666667 42.666667-42.666667s42.666667 19.2 42.666666 42.666667v85.333333c0 23.466667-19.2 42.666667-42.666666 42.666667z" fill="#50D9FF" p-id="6777"></path><path d="M213.333333 597.333333h85.333334v85.333334h-85.333334z" fill="#2B7CD3" p-id="6778"></path><path d="M213.333333 746.666667h85.333334v85.333333h-85.333334z" fill="#41A5EE" p-id="6779"></path><path d="M384 597.333333h85.333333v85.333334h-85.333333z" fill="#2B7CD3" p-id="6780"></path><path d="M384 746.666667h85.333333v85.333333h-85.333333z" fill="#41A5EE" p-id="6781"></path><path d="M554.666667 597.333333h85.333333v85.333334h-85.333333z" fill="#2B7CD3" p-id="6782"></path><path d="M554.666667 746.666667h85.333333v85.333333h-85.333333z" fill="#41A5EE" p-id="6783"></path><path d="M725.333333 597.333333h85.333334v85.333334h-85.333334z" fill="#2B7CD3" p-id="6784"></path><path d="M384 448h85.333333v85.333333h-85.333333zM554.666667 448h85.333333v85.333333h-85.333333zM725.333333 448h85.333334v85.333333h-85.333334z" fill="#185ABD" p-id="6785"></path></svg>

<svg class="icon" viewBox="0 0 1024 1024" xmlns="http://www.w3.org/2000/svg" width="200" height="200"><path d="M896 938.667H128c-23.467 0-42.667-19.2-42.667-42.667V213.333c0-23.466 19.2-42.666 42.667-42.666h768c23.467 0 42.667 19.2 42.667 42.666V896c0 23.467-19.2 42.667-42.667 42.667z" fill="#BAE7FF"/><path d="M938.667 341.333H85.333v-128c0-23.466 19.2-42.666 42.667-42.666h768c23.467 0 42.667 19.2 42.667 42.666v128z" fill="#185ABD"/><path d="M266.667 256C243.2 256 224 236.8 224 213.333V128c0-23.467 19.2-42.667 42.667-42.667s42.666 19.2 42.666 42.667v85.333c0 23.467-19.2 42.667-42.666 42.667zm480 0C723.2 256 704 236.8 704 213.333V128c0-23.467 19.2-42.667 42.667-42.667s42.666 19.2 42.666 42.667v85.333c0 23.467-19.2 42.667-42.666 42.667z" fill="#50D9FF"/><path d="M213.333 597.333h85.334v85.334h-85.334z" fill="#2B7CD3"/><path d="M213.333 746.667h85.334V832h-85.334z" fill="#41A5EE"/><path d="M384 597.333h85.333v85.334H384z" fill="#2B7CD3"/><path d="M384 746.667h85.333V832H384z" fill="#41A5EE"/><path d="M554.667 597.333H640v85.334h-85.333z" fill="#2B7CD3"/><path d="M554.667 746.667H640V832h-85.333z" fill="#41A5EE"/><path d="M725.333 597.333h85.334v85.334h-85.334z" fill="#2B7CD3"/><path d="M384 448h85.333v85.333H384zm170.667 0H640v85.333h-85.333zm170.666 0h85.334v85.333h-85.334z" fill="#185ABD"/></svg>
